resources/images/inne.svg

<svg width="60" height="60" viewBox="0 0 60 60" fill="none" xmlns="http://www.w3.org/2000/svg">
<g id="inne">
<path id="Vector" d="M52.9349 15.6389C53.1701 15.6391 53.3979 15.5563 53.5782 15.4052C53.7585 15.254 53.8797 15.0441 53.9206 14.8124C53.9614 14.5807 53.9193 14.3421 53.8015 14.1384C53.6838 13.9347 53.498 13.779 53.2769 13.6988L44.0073 10.3155C43.7581 10.2246 43.483 10.2363 43.2425 10.3482C43.0019 10.4601 42.8157 10.6629 42.7247 10.9121C42.6337 11.1613 42.6455 11.4364 42.7574 11.6769C42.8692 11.9174 43.0721 12.1037 43.3213 12.1947L52.5919 15.5779C52.7017 15.6181 52.8178 15.6388 52.9349 15.6389Z" fill="#1F294C"/>
<path id="Vector_2" d="M11.0599 56.5998L10.6598 56.6688L2.15429 8.40668L23.2736 4.68244C23.4057 4.66265 23.5324 4.61663 23.6463 4.5471C23.7603 4.47756 23.8591 4.38592 23.9371 4.27757C24.0151 4.16922 24.0706 4.04636 24.1003 3.91622C24.1301 3.78609 24.1334 3.65132 24.1103 3.51986C24.0871 3.38839 24.0379 3.2629 23.9654 3.15077C23.893 3.03864 23.7988 2.94215 23.6885 2.86698C23.5782 2.79182 23.454 2.73949 23.3231 2.7131C23.1923 2.68671 23.0574 2.68678 22.9266 2.71331L0.825207 6.61356C0.564309 6.65989 0.332464 6.80787 0.180584 7.02501C0.0287043 7.24214 -0.0307941 7.51067 0.0151546 7.77164L8.86872 57.9999C8.9096 58.2312 9.03062 58.4408 9.21055 58.5918C9.39049 58.7429 9.61786 58.8257 9.85279 58.8259C9.91111 58.8259 9.96933 58.8209 10.0268 58.8109L11.4079 58.5659C11.5412 58.5476 11.6694 58.5025 11.7849 58.4334C11.9004 58.3644 12.0007 58.2727 12.08 58.164C12.1592 58.0552 12.2156 57.9316 12.246 57.8005C12.2763 57.6694 12.2798 57.5335 12.2564 57.401C12.233 57.2685 12.183 57.1421 12.1096 57.0294C12.0362 56.9166 11.9407 56.8198 11.829 56.7448C11.7173 56.6698 11.5916 56.6182 11.4594 56.5929C11.3273 56.5676 11.1914 56.5693 11.0599 56.5978V56.5998Z" fill="#1F294C"/>
<path id="Vector_3" d="M59.0021 45.999C58.7369 45.999 58.4825 46.1044 58.295 46.2919C58.1074 46.4795 58.002 46.7339 58.002 46.9991V57.9998H27.0001C26.7348 57.9998 26.4805 58.1052 26.2929 58.2927C26.1054 58.4803 26 58.7346 26 58.9999C26 59.2651 26.1054 59.5195 26.2929 59.707C26.4805 59.8946 26.7348 59.9999 27.0001 59.9999H59.0021C59.2673 59.9999 59.5217 59.8946 59.7093 59.707C59.8968 59.5195 60.0022 59.2651 60.0022 58.9999V46.9991C60.0022 46.7339 59.8968 46.4795 59.7093 46.2919C59.5217 46.1044 59.2673 45.999 59.0021 45.999Z" fill="#1F294C"/>
<path id="Vector_4" d="M58.9988 27.9979H54.4425L55.1426 26.0908C55.1875 25.9673 55.2076 25.836 55.2017 25.7047C55.1958 25.5733 55.1641 25.4444 55.1084 25.3254C55.0527 25.2063 54.974 25.0994 54.8769 25.0107C54.7798 24.9221 54.6662 24.8534 54.5425 24.8087L50.7843 23.4367C50.5985 23.3688 50.437 23.2474 50.3202 23.0878C50.2034 22.9282 50.1365 22.7376 50.1281 22.54C50.1196 22.3424 50.1699 22.1467 50.2727 21.9777C50.3754 21.8087 50.526 21.674 50.7053 21.5905C50.8243 21.5348 50.9532 21.5032 51.0846 21.4977C51.2159 21.4923 51.347 21.5129 51.4703 21.5585L55.2276 22.9296C55.3512 22.9747 55.4825 22.9949 55.614 22.9891C55.7454 22.9833 55.8744 22.9517 55.9936 22.8959C56.1128 22.8402 56.2199 22.7614 56.3086 22.6643C56.3973 22.5671 56.466 22.4534 56.5106 22.3296L59.9379 12.929C59.9828 12.8054 60.0029 12.6742 59.997 12.5428C59.9911 12.4115 59.9594 12.2826 59.9037 12.1635C59.848 12.0444 59.7693 11.9375 59.6722 11.8489C59.5751 11.7602 59.4615 11.6916 59.3378 11.6469L40.0756 4.62545L39.4045 0.825207C39.3582 0.564309 39.2102 0.332464 38.9931 0.180584C38.776 0.0287043 38.5074 -0.0307941 38.2465 0.0151546L26.8667 2.01728C26.6104 2.06843 26.3842 2.21794 26.2367 2.43378C26.0892 2.64962 26.0321 2.91464 26.0776 3.17207C26.1231 3.42951 26.2676 3.65889 26.4801 3.8111C26.6927 3.96331 26.9564 4.02623 27.2148 3.98641L37.6084 2.15429L42.1657 27.9979H33.5192C33.569 26.7398 33.5098 25.4797 33.3422 24.2317L36.2883 23.7127C36.3394 24.204 36.3621 24.6978 36.3563 25.1918C36.354 25.3232 36.3775 25.4538 36.4256 25.5761C36.4738 25.6984 36.5455 25.81 36.6368 25.9046C36.7281 25.9991 36.8372 26.0748 36.9577 26.1271C37.0783 26.1795 37.208 26.2076 37.3394 26.2098C37.6032 26.2095 37.8566 26.1068 38.0463 25.9235C38.236 25.7402 38.3472 25.4904 38.3565 25.2268C38.3941 23.0597 37.9612 20.9102 37.0876 18.9267C36.214 16.9432 34.9204 15.1728 33.2962 13.7377C31.672 12.3026 29.7558 11.2369 27.6798 10.6142C25.6037 9.99147 23.4173 9.82655 21.2714 10.1308L20.3463 10.2868C17.553 10.8549 14.9797 12.2081 12.9287 14.1876C10.8776 16.1672 9.43395 18.6908 8.76717 21.4622C8.10038 24.2336 8.23817 27.1378 9.16435 29.8336C10.0905 32.5294 11.7667 34.9051 13.9959 36.6815V58.9999C13.9959 59.2652 14.1013 59.5195 14.2888 59.7071C14.4764 59.8946 14.7307 60 14.996 60H22.9965C23.2617 60 23.5161 59.8946 23.7036 59.7071C23.8912 59.5195 23.9966 59.2652 23.9966 58.9999C23.9966 58.7347 23.8912 58.4803 23.7036 58.2928C23.5161 58.1052 23.2617 57.9999 22.9965 57.9999H15.996V34.9984H57.9987V38.9987H18.9962C18.731 38.9987 18.4766 39.104 18.2891 39.2916C18.1015 39.4791 17.9962 39.7335 17.9962 39.9987C17.9962 40.264 18.1015 40.5183 18.2891 40.7059C18.4766 40.8934 18.731 40.9988 18.9962 40.9988H57.9987V42.9989C57.9987 43.2641 58.1041 43.5185 58.2916 43.7061C58.4792 43.8936 58.7336 43.999 58.9988 43.999C59.264 43.999 59.5184 43.8936 59.706 43.7061C59.8935 43.5185 59.9989 43.2641 59.9989 42.9989V28.998C59.9989 28.7328 59.8935 28.4784 59.706 28.2909C59.5184 28.1033 59.264 27.9979 58.9988 27.9979ZM42.8528 20.3825C42.9605 20.5223 43.1044 20.6302 43.2688 20.6945L45.1469 21.3805C45.3961 21.4715 45.6712 21.4598 45.9117 21.3479C46.1523 21.236 46.3385 21.0332 46.4295 20.784C46.5205 20.5348 46.5087 20.2597 46.3969 20.0191C46.285 19.7786 46.0821 19.5924 45.833 19.5014L43.9538 18.8154C43.7074 18.7263 43.4359 18.7374 43.1976 18.8465C42.9594 18.9555 42.7734 19.1537 42.6798 19.3984L42.0797 16.0032L46.517 17.6223C46.6406 17.6681 46.772 17.6891 46.9037 17.684C47.0354 17.6789 47.1649 17.6478 47.2845 17.5925C47.4042 17.5372 47.5117 17.4588 47.601 17.3618C47.6902 17.2648 47.7594 17.1511 47.8045 17.0272C47.8497 16.9034 47.8699 16.7718 47.864 16.6402C47.8582 16.5085 47.8263 16.3792 47.7703 16.2599C47.7143 16.1406 47.6353 16.0335 47.5378 15.9448C47.4402 15.8561 47.3261 15.7876 47.202 15.7432L41.6777 13.728L40.4766 6.8966L57.7167 13.186L54.9745 20.7075L52.1554 19.6794C51.7842 19.5393 51.3889 19.4743 50.9924 19.488C50.5959 19.5017 50.2061 19.594 49.8454 19.7594C49.4848 19.9247 49.1606 20.16 48.8915 20.4516C48.6224 20.7431 48.4138 21.0851 48.2778 21.4578C48.1418 21.8305 48.081 22.2264 48.0991 22.6228C48.1171 23.0191 48.2136 23.4079 48.3829 23.7667C48.5522 24.1255 48.7909 24.4472 49.0854 24.7131C49.3798 24.979 49.7241 25.1838 50.0982 25.3158L52.9164 26.3448L52.3134 27.9979H44.1979L42.8528 20.3825ZM31.517 27.9979H27.8308C27.7228 27.0859 27.5955 26.1768 27.4488 25.2708L31.372 24.5787C31.5191 25.7121 31.5677 26.8562 31.517 27.9979ZM15.341 20.3145C16.4411 20.2645 17.5601 20.1684 18.6912 20.0444C18.8472 21.9246 19.0842 23.6257 19.2503 24.6867L15.328 25.3778C15.1069 23.697 15.1113 21.9941 15.341 20.3145ZM27.1068 23.2976C26.9007 22.2466 26.5447 20.5695 26.0507 18.7514C27.1568 18.48 28.2352 18.18 29.2859 17.8513C30.0746 19.353 30.6604 20.9527 31.028 22.6086L27.1068 23.2976ZM21.2184 24.3367C20.9514 22.6736 20.7744 21.1545 20.6683 19.7924C21.2424 19.7094 21.8174 19.6264 22.3935 19.5244C22.9695 19.4224 23.5395 19.3114 24.1066 19.1944C24.4706 20.5085 24.8216 21.9946 25.1386 23.6447L21.2184 24.3367ZM21.1134 12.2569C21.6604 12.689 22.5895 14.4121 23.5225 17.2573C23.0305 17.3573 22.5455 17.4713 22.0464 17.5573C21.5474 17.6433 21.0524 17.7043 20.5553 17.7783C20.4613 14.7871 20.7473 12.849 21.1134 12.2569ZM25.4847 16.8272C25.0282 15.2907 24.4128 13.8059 23.6485 12.3969C25.5112 13.1261 27.1008 14.4168 28.1968 16.0902C27.3141 16.3569 26.41 16.6026 25.4847 16.8272ZM27.9788 12.818C29.2861 13.3145 30.504 14.0201 31.585 14.9071C31.117 15.0911 30.655 15.2761 30.167 15.4471C29.5396 14.4907 28.8055 13.6086 27.9788 12.818ZM18.7722 13.274C18.5391 14.8537 18.4697 16.4533 18.5652 18.0473C17.6225 18.1513 16.6891 18.2297 15.765 18.2823C16.2277 16.343 17.278 14.5939 18.7722 13.274ZM15.84 27.9979C15.783 27.7809 15.725 27.5649 15.675 27.3469L19.6023 26.6549C19.6913 27.1159 19.7833 27.5689 19.8763 27.9979H15.84ZM21.9264 27.9979C21.8044 27.4619 21.6864 26.8979 21.5714 26.3068L25.4787 25.6178C25.6067 26.4098 25.7193 27.2032 25.8167 27.9979H21.9264ZM35.9403 21.7435L32.9971 22.2616C32.614 20.5082 32.0091 18.8108 31.197 17.2103C31.8711 16.9672 32.5201 16.7102 33.1571 16.4412C34.4858 17.9673 35.4389 19.7832 35.9403 21.7435ZM14.829 15.1431C14.3247 16.1673 13.9389 17.2457 13.6789 18.3573C13.1619 18.3573 12.6638 18.3463 12.1618 18.3333C12.8715 17.1306 13.7724 16.0514 14.829 15.1381V15.1431ZM11.2107 20.2975C11.8698 20.3285 12.5288 20.3605 13.2109 20.3605H13.3109C13.096 22.1426 13.1087 23.9449 13.3489 25.7238L10.4207 26.2408C10.216 24.2252 10.4865 22.1896 11.2107 20.2975ZM10.7707 28.208L13.7059 27.6979C13.7966 28.1026 13.8996 28.5063 14.0149 28.909C14.0149 28.941 13.9959 28.969 13.9959 29.002V33.9963C12.4358 32.3817 11.3241 30.3879 10.7707 28.212V28.208ZM15.996 32.9983V29.9981H57.9987V32.9983H15.996Z" fill="#1F294C"/>
<path id="Vector_5" d="M33.0009 50.9993C33.0009 49.9383 32.5794 48.9209 31.8292 48.1707C31.0791 47.4205 30.0616 46.999 29.0006 46.999H23.0003C21.9393 46.999 20.9218 47.4205 20.1716 48.1707C19.4215 48.9209 19 49.9383 19 50.9993C19 52.0602 19.4215 53.0777 20.1716 53.8279C20.9218 54.5781 21.9393 54.9995 23.0003 54.9995H29.0006C30.0616 54.9995 31.0791 54.5781 31.8292 53.8279C32.5794 53.0777 33.0009 52.0602 33.0009 50.9993ZM21.0001 50.9993C21.0001 50.4688 21.2109 49.9601 21.586 49.585C21.961 49.2099 22.4698 48.9992 23.0003 48.9992H29.0006C29.5311 48.9992 30.0399 49.2099 30.4149 49.585C30.79 49.9601 31.0008 50.4688 31.0008 50.9993C31.0008 51.5297 30.79 52.0385 30.4149 52.4136C30.0399 52.7887 29.5311 52.9994 29.0006 52.9994H23.0003C22.4698 52.9994 21.961 52.7887 21.586 52.4136C21.2109 52.0385 21.0001 51.5297 21.0001 50.9993Z" fill="#1F294C"/>
<path id="Vector_6" d="M42.0001 49.9992H53.0008C53.266 49.9992 53.5204 49.8938 53.7079 49.7062C53.8955 49.5187 54.0008 49.2643 54.0008 48.9991C54.0008 48.7339 53.8955 48.4795 53.7079 48.2919C53.5204 48.1044 53.266 47.999 53.0008 47.999H42.0001C41.7348 47.999 41.4805 48.1044 41.2929 48.2919C41.1054 48.4795 41 48.7339 41 48.9991C41 49.2643 41.1054 49.5187 41.2929 49.7062C41.4805 49.8938 41.7348 49.9992 42.0001 49.9992Z" fill="#1F294C"/>
<path id="Vector_7" d="M42.0001 53.9996H50.0006C50.2658 53.9996 50.5202 53.8943 50.7077 53.7067C50.8953 53.5192 51.0006 53.2648 51.0006 52.9996C51.0006 52.7343 50.8953 52.48 50.7077 52.2924C50.5202 52.1049 50.2658 51.9995 50.0006 51.9995H42.0001C41.7348 51.9995 41.4805 52.1049 41.2929 52.2924C41.1054 52.48 41 52.7343 41 52.9996C41 53.2648 41.1054 53.5192 41.2929 53.7067C41.4805 53.8943 41.7348 53.9996 42.0001 53.9996Z" fill="#1F294C"/>
</g>
</svg>

<svg width="60" height="60" fill="none" xmlns="http://www.w3.org/2000/svg"><g fill="#1F294C"><path d="M52.935 15.639a1 1 0 0 0 .342-1.94l-9.27-3.383a1 1 0 0 0-.686 1.879l9.27 3.383a1 1 0 0 0 .344.06ZM11.06 56.6l-.4.069L2.154 8.407l21.12-3.725a1 1 0 1 0-.347-1.969L.825 6.613a1 1 0 0 0-.81 1.159L8.87 58a1 1 0 0 0 1.158.81l1.38-.244a.999.999 0 1 0-.347-1.968v.002ZM59.002 45.999a1 1 0 0 0-1 1v11H27a1 1 0 0 0 0 2h32.002a1 1 0 0 0 1-1V47a1 1 0 0 0-1-1Z"/><path d="M58.999 27.998h-4.556l.7-1.907a1 1 0 0 0-.6-1.282l-3.759-1.372a1 1 0 0 1 .686-1.879l3.758 1.372a.999.999 0 0 0 1.283-.6l3.427-9.401a1 1 0 0 0-.6-1.282L40.076 4.625l-.672-3.8a1 1 0 0 0-1.158-.81l-11.38 2.002a1 1 0 0 0 .349 1.97l10.393-1.833 4.558 25.844h-8.647c.05-1.258-.01-2.518-.177-3.766l2.946-.52c.051.492.074.986.068 1.48a1.002 1.002 0 0 0 .983 1.018 1.02 1.02 0 0 0 1.017-.983A14.985 14.985 0 0 0 21.271 10.13l-.925.156a14.98 14.98 0 0 0-6.35 26.395V59a1 1 0 0 0 1 1h8a1 1 0 0 0 0-2h-7V34.998h42.003v4H18.996a1 1 0 1 0 0 2H58v2a1 1 0 0 0 2 0v-14a1 1 0 0 0-1-1Zm-16.146-7.616c.108.14.251.248.416.313l1.878.686a1 1 0 1 0 .686-1.88l-1.88-.686a1 1 0 0 0-1.273.583l-.6-3.395 4.437 1.62a1.001 1.001 0 0 0 1.02-1.678 1 1 0 0 0-.335-.202l-5.524-2.015-1.201-6.831 17.24 6.289-2.742 7.521-2.82-1.028a3 3 0 1 0-2.057 5.637l2.818 1.029-.603 1.653h-8.115l-1.345-7.616Zm-11.336 7.616h-3.686a64.558 64.558 0 0 0-.382-2.727l3.923-.692c.147 1.133.196 2.277.145 3.419Zm-16.176-7.684c1.1-.05 2.22-.146 3.35-.27.156 1.88.393 3.582.56 4.643l-3.923.69a19.041 19.041 0 0 1 .013-5.063Zm11.766 2.984a66.816 66.816 0 0 0-1.056-4.547 53.667 53.667 0 0 0 3.235-.9 19.162 19.162 0 0 1 1.742 4.758l-3.921.689Zm-5.889 1.039a56.396 56.396 0 0 1-.55-4.545c.574-.083 1.15-.166 1.726-.268a61.817 61.817 0 0 0 1.713-.33c.364 1.315.715 2.8 1.032 4.45l-3.92.693Zm-.105-12.08c.547.432 1.477 2.155 2.41 5-.492.1-.977.214-1.477.3-.499.086-.994.147-1.49.221-.095-2.99.191-4.929.557-5.521Zm4.372 4.57a23.073 23.073 0 0 0-1.837-4.43 9.636 9.636 0 0 1 4.549 3.693c-.883.267-1.787.513-2.712.737Zm2.494-4.009a12.913 12.913 0 0 1 3.606 2.09c-.468.183-.93.368-1.418.54a15.093 15.093 0 0 0-2.188-2.63Zm-9.207.456a23.196 23.196 0 0 0-.207 4.773c-.943.104-1.876.183-2.8.235a9.68 9.68 0 0 1 3.007-5.008ZM15.84 27.998c-.057-.217-.115-.433-.165-.651l3.927-.692c.09.46.181.914.274 1.343H15.84Zm6.086 0c-.122-.536-.24-1.1-.355-1.691l3.908-.69c.128.793.24 1.586.338 2.38h-3.89Zm14.014-6.255-2.943.519a21.132 21.132 0 0 0-1.8-5.052c.674-.243 1.323-.5 1.96-.769a12.969 12.969 0 0 1 2.783 5.303Zm-21.111-6.6a15.02 15.02 0 0 0-1.15 3.214c-.517 0-1.015-.01-1.517-.024a12.867 12.867 0 0 1 2.667-3.195v.005Zm-3.618 5.154c.659.031 1.318.063 2 .063h.1a21.154 21.154 0 0 0 .038 5.364l-2.928.517a12.963 12.963 0 0 1 .79-5.944Zm-.44 7.911 2.935-.51c.09.405.194.808.309 1.211 0 .032-.02.06-.02.093v4.994a12.9 12.9 0 0 1-3.224-5.784v-.004Zm5.225 4.79v-3h42.003v3H15.996Z"/><path d="M33 51a4 4 0 0 0-4-4.001h-6a4 4 0 0 0 0 8h6a4 4 0 0 0 4-4Zm-12 0a2 2 0 0 1 2-2h6a2 2 0 1 1 0 4h-6a2 2 0 0 1-2-2ZM42 50h11a1 1 0 0 0 0-2.001H42a1 1 0 0 0 0 2ZM42 54h8a1 1 0 1 0 0-2h-8a1 1 0 0 0 0 2Z"/></g></svg>
